src/topics/icons/pkg.svg

<svg height="256" preserveAspectRatio="xMidYMid" viewBox="0 0 256 256" width="256" xmlns="http://www.w3.org/2000/svg" xmlns:xlink="http://www.w3.org/1999/xlink"><linearGradient id="a" x1="29.629299%" x2="81.636052%" y1="10.454505%" y2="111.467622%"><stop offset="0" stop-color="#3023ae"/><stop offset="1" stop-color="#c86dd7"/></linearGradient><path d="m92.2095353 8h72.0175827c46.499541 0 84.209536 37.709994 84.209536 84.2095353v72.0175827c0 46.499541-37.709995 84.209536-84.209536 84.209536h-72.0175827c-46.4995413 0-84.2095353-37.709995-84.2095353-84.209536v-72.0175827c0-46.4995413 37.709994-84.2095353 84.2095353-84.2095353z"/><path d="m97.1340054 15.0460601c-45.344516 0-82.0878997 36.7432724-82.0878997 82.0876511v61.7318028c0 45.344379 36.7433837 82.087651 82.0878997 82.087651h61.7319896c45.344516 0 82.087899-36.743272 82.087899-82.087651v-61.7318028c0-45.3443787-36.743383-82.0876511-82.087899-82.0876511zm0-15.0460601h61.7319896c53.654251 0 97.134005 43.479623 97.134005 97.1337112v61.7318028c0 53.654088-43.479754 97.133711-97.134005 97.133711h-61.7319896c-53.6542507 0-97.1340054-43.479623-97.1340054-97.133711v-61.7318028c0-53.6540882 43.4797547-97.1337112 97.1340054-97.1337112z" fill="url(#a)"/><path d="m125.450687 191.027164-66.450687-26.187462 67.105373-99.839702zm-6.535879-102.6567087-49.1434799 73.1159097 48.6640319 19.177944zm17.593623 92.2796027 48.938281-19.431376-49.418069-72.9276367zm-7.669528-115.570648 67.397852 99.460908-66.743503 26.501097z" fill="#fff"/></svg>

<?xml version="1.0" encoding="UTF-8"?>
<svg width="256px" height="256px" viewBox="0 0 256 256" version="1.1" xmlns="http://www.w3.org/2000/svg" xmlns:xlink="http://www.w3.org/1999/xlink" preserveAspectRatio="xMidYMid">
    <defs>
        <linearGradient x1="29.6292991%" y1="10.4545048%" x2="81.6360523%" y2="111.467622%" id="linearGradient-1">
            <stop stop-color="#3023AE" offset="0%"></stop>
            <stop stop-color="#C86DD7" offset="100%"></stop>
        </linearGradient>
    </defs>
    <g>
        <path d="M92.2095353,8 L164.227118,8 C210.726659,8 248.436654,45.709994 248.436654,92.2095353 L248.436654,164.227118 C248.436654,210.726659 210.726659,248.436654 164.227118,248.436654 L92.2095353,248.436654 C45.709994,248.436654 8,210.726659 8,164.227118 L8,92.2095353 C8,45.709994 45.709994,8 92.2095353,8 Z" fill="#000000"></path>
        <path d="M97.1340054,15.0460601 C51.7894894,15.0460601 15.0461057,51.7893325 15.0461057,97.1337112 L15.0461057,158.865514 C15.0461057,204.209893 51.7894894,240.953165 97.1340054,240.953165 L158.865995,240.953165 C204.210511,240.953165 240.953894,204.209893 240.953894,158.865514 L240.953894,97.1337112 C240.953894,51.7893325 204.210511,15.0460601 158.865995,15.0460601 L97.1340054,15.0460601 Z M97.1340054,0 L158.865995,0 C212.520246,0 256,43.479623 256,97.1337112 L256,158.865514 C256,212.519602 212.520246,255.999225 158.865995,255.999225 L97.1340054,255.999225 C43.4797547,255.999225 0,212.519602 0,158.865514 L0,97.1337112 C0,43.479623 43.4797547,0 97.1340054,0 Z" fill="url(#linearGradient-1)"></path>
        <path d="M125.450687,191.027164 L59,164.839702 L126.105373,65 L125.450687,191.027164 Z M118.914808,88.3704553 L69.7713281,161.486365 L118.43536,180.664309 L118.914808,88.3704553 Z M136.508431,180.650058 L185.446712,161.218682 L136.028643,88.2910453 L136.508431,180.650058 Z M128.838903,65.07941 L196.236755,164.540318 L129.493252,191.041415 L128.838903,65.07941 Z" fill="#FFFFFF"></path>
    </g>
</svg>
